assets/svg/user-circle-o.svg

<?xml version="1.0" encoding="UTF-8"?>
<svg width="1000px" height="1000px" viewBox="0 0 1000 1000" version="1.1" xmlns="http://www.w3.org/2000/svg" xmlns:xlink="http://www.w3.org/1999/xlink">
    <!-- Generator: sketchtool 52.4 (67378) - http://www.bohemiancoding.com/sketch -->
    <title>user-circle-o</title>
    <desc>Created with sketchtool.</desc>
    <g id="新版图标" stroke="none" stroke-width="1" fill="none" fill-rule="evenodd">
        <g id="user-circle-o" fill="#323233">
            <g id="直角-用户名-线">
                <path d="M499.994444,444.461111 C438.716667,444.461111 388.883333,394.627778 388.883333,333.35 C388.883333,272.072222 438.716667,222.238889 499.994444,222.238889 C561.272222,222.238889 611.105556,272.072222 611.105556,333.35 C611.105556,394.627778 561.272222,444.461111 499.994444,444.461111 M666.661111,333.35 C666.661111,241.294444 592.05,166.683333 499.994444,166.683333 C407.938889,166.683333 333.327778,241.294444 333.327778,333.35 C333.327778,425.405556 407.938889,500.016667 499.994444,500.016667 C592.05,500.016667 666.661111,425.405556 666.661111,333.35 M779.944444,769.277778 C773.444444,776.055556 766.611111,782.388889 759.666667,788.722222 C756.722222,791.333333 753.833333,794.111111 750.833333,796.722222 C744.777778,801.888889 738.444444,806.555556 732.166667,811.277778 C727.888889,814.388889 723.833333,817.722222 719.5,820.722222 C714.222222,824.333333 708.777778,827.555556 703.333333,830.888889 C697.722222,834.333333 692.222222,837.944444 686.444444,841.166667 C682,843.555556 677.388889,845.611111 672.888889,847.833333 C665.944444,851.333333 659.055556,854.944444 651.833333,858 C648.055556,859.611111 644.111111,860.833333 640.166667,862.333333 C632.166667,865.444444 624.111111,868.666667 615.833333,871.277778 C612,872.444444 607.944444,873.277778 604.055556,874.388889 C595.611111,876.722222 587.166667,879.166667 578.5,880.944444 C572.277778,882.222222 565.833333,882.888889 559.5,883.888889 C552.944444,884.888889 546.5,886.166667 539.833333,886.888889 C526.666667,888.222222 513.388889,888.888889 500,888.888889 C486.611111,888.888889 473.277778,888.222222 460.166667,886.888889 C453.5,886.166667 447.055556,884.888889 440.5,883.888889 C434.111111,882.888889 427.722222,882.222222 421.5,880.944444 C412.833333,879.166667 404.388889,876.722222 395.944444,874.388889 C392.055556,873.277778 388,872.444444 384.166667,871.277778 C375.888889,868.666667 367.833333,865.444444 359.833333,862.333333 C355.888889,860.833333 351.944444,859.611111 348.166667,858 C340.944444,854.944444 334.055556,851.333333 327.111111,847.833333 C322.611111,845.611111 318,843.555556 313.5,841.166667 C307.777778,837.944444 302.277778,834.333333 296.666667,830.888889 C291.222222,827.555556 285.722222,824.333333 280.5,820.722222 C276.166667,817.722222 272.055556,814.388889 267.833333,811.277778 C261.555556,806.555556 255.222222,801.888889 249.166667,796.722222 C246.166667,794.111111 243.277778,791.333333 240.333333,788.722222 C233.388889,782.388889 226.555556,776.055556 220.055556,769.277778 C219.388889,768.555556 218.777778,767.888889 218.166667,767.166667 C278.833333,670.111111 383.888889,611.111111 500,611.111111 C616.111111,611.111111 721.111111,670.111111 781.833333,767.166667 C781.166667,767.888889 780.611111,768.555556 779.944444,769.277778 M111.111111,500 C111.111111,285.611111 285.611111,111.111111 500,111.111111 C714.388889,111.111111 888.888889,285.611111 888.888889,500 C888.888889,582.833333 862.666667,659.444444 818.388889,722.555556 C748.222222,621.888889 632.111111,555.555556 500,555.555556 C367.888889,555.555556 251.777778,621.888889 181.555556,722.555556 C137.333333,659.444444 111.111111,582.833333 111.111111,500 M849.277778,774.277778 C908.666667,698.666667 944.444444,603.666667 944.444444,500 C944.444444,254.555556 745.444444,55.5555556 500,55.5555556 C254.555556,55.5555556 55.5555556,254.555556 55.5555556,500 C55.5555556,603.666667 91.2777778,698.666667 150.722222,774.277778 C181,812.777778 217.333333,846.111111 258.5,872.833333 C260.055556,873.777778 261.555556,874.611111 263.055556,875.555556 C274.555556,882.888889 286.444444,889.666667 298.666667,895.888889 C302.222222,897.722222 305.888889,899.388889 309.444444,901.111111 C319.944444,906.055556 330.5,910.666667 341.333333,914.777778 C346.055556,916.555556 350.777778,918.333333 355.555556,920 C365.777778,923.5 376.166667,926.555556 386.777778,929.333333 C392.055556,930.722222 397.166667,932.222222 402.5,933.388889 C413.5,935.833333 424.666667,937.666667 435.944444,939.333333 C440.833333,940 445.666667,941 450.666667,941.611111 C466.888889,943.388889 483.277778,944.444444 500,944.444444 C516.722222,944.444444 533.111111,943.388889 549.333333,941.611111 C554.277778,941 559.111111,940 564.055556,939.333333 C575.277778,937.666667 586.5,935.833333 597.5,933.388889 C602.833333,932.222222 607.944444,930.722222 613.222222,929.333333 C623.777778,926.555556 634.222222,923.5 644.444444,920 C649.166667,918.333333 653.888889,916.555556 658.611111,914.777778 C669.5,910.666667 680.055556,906.055556 690.5,901.111111 C694.111111,899.388889 697.777778,897.722222 701.333333,895.888889 C713.555556,889.666667 725.444444,882.888889 736.944444,875.555556 C738.444444,874.611111 739.944444,873.777778 741.5,872.833333 C782.666667,846.111111 819,812.777778 849.277778,774.277778" id="Fill-1"></path>
            </g>
        </g>
    </g>
</svg>

<svg width="1000" height="1000" xmlns="http://www.w3.org/2000/svg"><path d="M499.994 444.461c-61.277 0-111.11-49.833-111.11-111.111 0-61.278 49.833-111.111 111.11-111.111 61.278 0 111.112 49.833 111.112 111.111 0 61.278-49.834 111.111-111.112 111.111M666.661 333.35c0-92.056-74.611-166.667-166.667-166.667-92.055 0-166.666 74.611-166.666 166.667s74.61 166.667 166.666 166.667 166.667-74.611 166.667-166.667m113.283 435.928c-6.5 6.778-13.333 13.11-20.277 19.444-2.945 2.611-5.834 5.39-8.834 8-6.055 5.167-12.389 9.834-18.666 14.556-4.278 3.11-8.334 6.444-12.667 9.444-5.278 3.611-10.722 6.834-16.167 10.167-5.61 3.444-11.11 7.055-16.889 10.278-4.444 2.389-9.055 4.444-13.555 6.666-6.945 3.5-13.833 7.111-21.056 10.167-3.777 1.611-7.722 2.833-11.666 4.333-8 3.111-16.056 6.334-24.334 8.945-3.833 1.166-7.889 2-11.777 3.11-8.445 2.334-16.89 4.779-25.556 6.556-6.222 1.278-12.667 1.945-19 2.945-6.556 1-13 2.278-19.667 3a395.119 395.119 0 0 1-39.833 2c-13.389 0-26.722-.667-39.833-2-6.667-.722-13.111-2-19.667-3-6.389-1-12.778-1.667-19-2.945-8.667-1.777-17.111-4.222-25.556-6.555-3.888-1.111-7.944-1.945-11.777-3.111-8.278-2.611-16.334-5.834-24.334-8.945-3.944-1.5-7.889-2.722-11.666-4.333-7.223-3.056-14.111-6.667-21.056-10.167-4.5-2.222-9.111-4.277-13.611-6.666-5.722-3.223-11.222-6.834-16.833-10.278-5.445-3.333-10.945-6.556-16.167-10.167-4.333-3-8.444-6.333-12.667-9.444-6.277-4.722-12.61-9.39-18.666-14.556-3-2.61-5.89-5.389-8.834-8-6.944-6.333-13.777-12.666-20.277-19.444a64.608 64.608 0 0 1-1.89-2.111C278.834 670.11 383.89 611.11 500 611.11c116.111 0 221.111 59 281.833 156.056-.666.722-1.222 1.389-1.889 2.11M111.111 500c0-214.389 174.5-388.889 388.889-388.889S888.889 285.611 888.889 500c0 82.833-26.222 159.444-70.5 222.556-70.167-100.667-186.278-167-318.389-167-132.111 0-248.222 66.333-318.444 167C137.333 659.444 111.11 582.833 111.11 500m738.167 274.278c59.389-75.611 95.166-170.611 95.166-274.278 0-245.444-199-444.444-444.444-444.444-245.444 0-444.444 199-444.444 444.444 0 103.667 35.722 198.667 95.166 274.278 30.278 38.5 66.611 71.833 107.778 98.555 1.556.945 3.056 1.778 4.556 2.723a423.926 423.926 0 0 0 35.61 20.333c3.556 1.833 7.223 3.5 10.778 5.222 10.5 4.945 21.056 9.556 31.89 13.667 4.722 1.778 9.444 3.555 14.222 5.222 10.222 3.5 20.61 6.556 31.222 9.333 5.278 1.39 10.389 2.89 15.722 4.056 11 2.444 22.167 4.278 33.444 5.944 4.89.667 9.723 1.667 14.723 2.278 16.222 1.778 32.61 2.833 49.333 2.833 16.722 0 33.111-1.055 49.333-2.833 4.945-.611 9.778-1.611 14.723-2.278 11.222-1.666 22.444-3.5 33.444-5.944 5.333-1.167 10.444-2.667 15.722-4.056 10.556-2.777 21-5.833 31.222-9.333 4.723-1.667 9.445-3.444 14.167-5.222 10.889-4.111 21.445-8.722 31.889-13.667 3.611-1.722 7.278-3.389 10.833-5.222a423.926 423.926 0 0 0 35.611-20.333c1.5-.945 3-1.778 4.556-2.723 41.167-26.722 77.5-60.055 107.778-98.555" fill="#323233" fill-rule="evenodd"/></svg>
